X: 147
T: No_80_Song_of_a_Spirit.krn
N: Derived from No_80_Song_of_a_Spirit.krn
%%abc-version 2.0
%%abcx-abcm2ps-target-version 5.9.1 (29 Sep 2008)
%%abc-creator hum2abc beta
%%abcx-conversion-date 2019/03/15 08:37:56
%%humdrum-veritas 3720097935
%%humdrum-veritas-data 492474390
%%linebreak <none>
%%barnumbers 0
L: 1/8
M: 2/4
K: B clef=bass
[K:clef=bass][M:2/4]F,2C3/C/ | 
C3B, ||  
[M:3/4]C3/C/ C3/B,/ B,F,/F,/ ||  
[M:2/4]!fermata!B,4 | 
B,2(3CB,B, | 
B,3G, | 
[M:3/4]B,3/G,/ F,3/G,/ F,C,/C,/ [I:setbarnb 8]||  
[M:2/4]!fermata!F,4 | 
B,3/B,/ (3:2:4B,G,/G,/F, ||  
[M:3/4](3G,F,F, F,3/F,/F,2 ||  
[M:2/4](3G,F,F, F,3/F,/ | 
F,2F,2 | 
F,3/F,/ (3F,F,F, | 
F,3/D,/ C,3/F,/ | 
F,2!fermata!C,2 ||  
[M:3/4](3F,F,F, (3F,F,F, F,3/F,/ | 
F,4(3G,F,F, | 
B,3/B,/B,3G, :|]  



